!!!COM: Vivaldi, Antonio Lucio
!!!CDT: 1678/03/04-1741/08/28
!!!OPR: 12 sonatas for two violins and basso continuo
!!!OTL: Sonata in B-flat major, op. @{OPS}, no. @{ONM} (@{SCT})
!!!OPS: 1
!!!ONM: 10
!!!OMV: 3. Gavotta
!!!SCT: RV 78
!!!SCA: Antonio Vivaldi: Thematisch-systematisches Verzeichnis seiner Werke (Ryom-Verzeichnis)
!!!OMD: Adagio
!!!key: B-
**kern	**dynam	**fb	**kern	**dynam	**kern	**dynam
*part3	*	*	*part2	*	*part1	*
*staff3	*	*	*staff2	*	*staff1	*
*ICstr&ICklav	*	*	*ICstr	*	*ICstr	*
*Icello&Icemba	*	*	*Ivioln	*	*Ivioln	*
*	*	*	*I#2	*	*I#1	*
*I"Violoncello\nContinuo	*	*	*I"Violin 2	*	*I"Violin 1	*
*I'bc	*	*	*I'v2	*	*I'v1	*
*>[A,A,B,B]	*>[A,A,B,B]	*>[A,A,B,B]	*>[A,A,B,B]	*>[A,A,B,B]	*>[A,A,B,B]	*>[A,A,B,B]
*>norep[A,B]	*>norep[A,B]	*>norep[A,B]	*>norep[A,B]	*>norep[A,B]	*>norep[A,B]	*>norep[A,B]
*>A	*>A	*>A	*>A	*>A	*>A	*>A
*clefF4	*	*	*clefG2	*	*clefG2	*
*k[b-e-]	*	*	*k[b-e-]	*	*k[b-e-]	*
*B-:	*	*	*B-:	*	*B-:	*
*M4/4	*	*	*M4/4	*	*M4/4	*
*met(c)	*	*	*met(c)	*	*met(c)	*
*MM168	*	*	*MM168	*	*MM168	*
=1	=1	=1	=1	=1	=1	=1
8B-y\L	.	.	1r	.	1r	.
8F\	.	.	.	.	.	.
8D\	.	.	.	.	.	.
8d\J	.	.	.	.	.	.
8c\L	.	6 4	.	.	.	.
8A\	.	.	.	.	.	.
8F\	.	.	.	.	.	.
8e-y\J	.	.	.	.	.	.
=2	=2	=2	=2	=2	=2	=2
4d\	.	6	8b-y/L	.	1r	.
.	.	.	8f/	.	.	.
2B-y\	.	5	8d/	.	.	.
.	.	.	8dd/J	.	.	.
.	.	7 4 2	8cc/L	.	.	.
.	.	.	8a/	.	.	.
4A\	.	6	8f/	.	.	.
.	.	.	8ee-y/J	.	.	.
=3	=3	=3	=3	=3	=3	=3
4B-y\	.	.	4dd\	.	8b-y/L	.
.	.	.	.	.	8f/	.
8r	.	.	2bb-y\	.	8d/	.
8BB-y/	.	.	.	.	8dd/J	.
4F\	.	5 4	.	.	8cc/L	.
.	.	.	.	.	8a/	.
8r	.	.	4aa\	.	8f/	.
8F\	.	3	.	.	8ee-y/J	.
=4	=4	=4	=4	=4	=4	=4
4BB-y/	.	.	4bb-y\	.	8dd\L	.
.	.	.	.	.	8ff\	.
8r	.	.	8r	.	8dd\	.
8B-y\	.	.	8dd\	.	8b-y\J	.
4A\	.	6	4cc\	.	8ff\L	.
.	.	.	.	.	8cc\	.
4F\	.	.	4a/	.	8ff\	.
.	.	.	.	.	8ee-y\J	.
=5	=5	=5	=5	=5	=5	=5
4B-y\	.	.	4f/	.	(8dd\L	.
.	.	.	.	.	8cc\	.
8r	.	.	8r	.	8b-y\)	.
8B-y\	.	.	8b-y\	.	8dd\J	.
4A\	.	6	8ff\L	.	4cc\	.
.	.	.	8cc\	.	.	.
4F\	.	.	8ff\	.	4a/	.
.	.	.	8ee-y\J	.	.	.
!!LO:LB:g=original
=6	=6	=6	=6	=6	=6	=6
4B-y\	.	.	(8dd\L	.	4f/	.
.	.	.	8cc\	.	.	.
4r	.	.	8b-y\)	.	8r	.
.	.	.	8dd\J	.	8ff\	.
4Bn\	.	6 5	4dd\	.	8gg\L	.
.	.	.	.	.	8dd\	.
4G\	.	n	4bn\	.	8gg\	.
.	.	.	.	.	8ff\J	.
=7	=7	=7	=7	=7	=7	=7
4c\	.	.	4g/	.	(8ee-y\L	.
.	.	.	.	.	8dd\	.
8r	.	.	8r	.	8cc\)	.
8c\	.	.	8gg\	.	8ee-y\J	.
4Bn\	.	6 5	8gg\L	.	4dd\	.
.	.	.	8dd\	.	.	.
4G\	.	n	8gg\	.	4bn\	.
.	.	.	8ff\J	.	.	.
=8	=8	=8	=8	=8	=8	=8
4c\	.	.	(8ee-y\L	.	4g/	.
.	.	.	8dd\	.	.	.
4r	.	.	8cc\)	.	8r	.
.	.	.	8een\J	.	8gg\	.
4c#X\	.	6 5	4ee\	.	8aa\L	.
.	.	.	.	.	8een\	.
4A\	.	#	4cc#X\	.	8aa\	.
.	.	.	.	.	8gg\J	.
=9	=9	=9	=9	=9	=9	=9
4d\	.	.	4a/	.	(8ff\L	.
.	.	.	.	.	8een\	.
8r	.	.	8r	.	8dd\)	.
8d\	.	.	8aa\	.	8ff\J	.
4c#X\	.	6	8aa\L	.	4een\	.
.	.	.	8een\	.	.	.
4A\	.	#	8aa\	.	4cc#X\	.
.	.	.	8gg\J	.	.	.
=10	=10	=10	=10	=10	=10	=10
4d\	.	.	(8ff\L	.	4a/	.
.	.	.	8een\	.	.	.
8r	.	.	8dd\)	.	8r	.
8d\	.	.	8ff\J	.	8aa\	.
4d\	.	6	4ff\	.	8bb-y\L	.
.	.	.	.	.	8dd\	.
4D\	.	.	4dd\	.	8bb-y\	.
.	.	.	.	.	8dd\J	.
=11	=11	=11	=11	=11	=11	=11
4C/	.	7 n	4een\	.	8bb-y\L	.
.	.	.	.	.	8gg\	.
8r	.	.	8r	.	8bb-y\	.
8C/	.	.	8gg\	.	8gg\J	.
4En\	.	6 5	4gg\	.	8ccc\L	.
.	.	.	.	.	8gg\	.
4C/	.	n	4een\	.	8ccc\	.
.	.	.	.	.	8gg\J	.
!!LO:LB:g=original
=12	=12	=12	=12	=12	=12	=12
4F\	.	.	4cc\	.	8aa\L	.
.	.	.	.	.	8ff\	.
4r	.	.	8r	.	8cc\	.
.	.	.	8a/	.	8ff\J	.
4.F\	.	.	8cc/L	.	8a\L	.
.	.	.	8a/	.	8ff\	.
.	.	.	8cc/	.	8a\	.
8A\	.	6	8a/J	.	8ff\J	.
=13	=13	=13	=13	=13	=13	=13
4.B-y\	.	6 5	8dd/L	.	8b-y\L	.
.	.	.	8g/	.	8ff\	.
.	.	.	8dd/	.	8b-y\	.
8B-y\	.	.	8g/J	.	8ff\J	.
4c\	.	n	8en/L	.	8cc\L	.
.	.	.	8cc/	.	8een\	.
4C/	.	.	8en/	.	8cc\	.
.	.	.	8cc/J	.	8een\J	.
=14	=14	=14	=14	=14	=14	=14
1FF/	.	.	1a	.	8ff\L	.
.	.	.	.	.	8aa\	.
.	.	.	.	.	8ff\	.
.	.	.	.	.	8cc\J	.
.	.	.	.	.	2f/	.
=15:|!|:	=15:|!|:	=15:|!|:	=15:|!|:	=15:|!|:	=15:|!|:	=15:|!|:
*>B	*>B	*>B	*>B	*>B	*>B	*>B
8F\L	.	.	1r	.	1r	.
8C\	.	.	.	.	.	.
8AA\	.	.	.	.	.	.
8A\J	.	.	.	.	.	.
8G\L	.	6nr 4	.	.	.	.
8En\	.	.	.	.	.	.
8C\	.	.	.	.	.	.
8B-y\J	.	.	.	.	.	.
=16	=16	=16	=16	=16	=16	=16
4A\	.	6	8ff\L	.	1r	.
.	.	.	8cc\	.	.	.
2F\	.	5	8a\	.	.	.
.	.	.	8aa\J	.	.	.
.	.	7nr 4 2	8gg\L	.	.	.
.	.	.	8een\	.	.	.
4En\	.	6	8cc\	.	.	.
.	.	.	8bb-y\J	.	.	.
=17	=17	=17	=17	=17	=17	=17
4F\	.	.	4aa\	.	8ff\L	.
.	.	.	.	.	8cc\	.
8r	.	.	2ff\	.	8a\	.
8F\	.	.	.	.	8aa\J	.
4c\	.	5 4	.	.	8gg\L	.
.	.	.	.	.	8een\	.
8r	.	.	4een\	.	8cc\	.
8c\	.	n	.	.	8bb-y\J	.
!!LO:PB:g=original
=18	=18	=18	=18	=18	=18	=18
4F\	.	.	4ff\	.	8aa\L	.
.	.	.	.	.	8ff\	.
4r	.	.	4r	.	8cc\	.
.	.	.	.	.	8a\J	.
8r	.	.	8r	.	4.ff\	.
8A\	.	6 5	8cc\	.	.	.
8F\L	.	.	8a\L	.	.	.
8A\J	.	.	8cc\J	.	8ee-y\	.
=19	=19	=19	=19	=19	=19	=19
4B-y\	.	.	4f/	.	8dd\L	.
.	.	.	.	.	8ff\	.
4r	.	.	4r	.	8dd\	.
.	.	.	.	.	8b-y\J	.
8r	.	.	8r	.	4.gg\	.
8Bn\	.	6 5	8dd\	.	.	.
8G\L	.	.	8bn\L	.	.	.
8Bn\J	.	.	8dd\J	.	8ff\	.
=20	=20	=20	=20	=20	=20	=20
4c\	.	.	4g/	.	8een\L	.
.	.	.	.	.	8gg\	.
4r	.	.	4r	.	8een\	.
.	.	.	.	.	8cc\J	.
8r	.	.	8r	.	4.aa\	.
8c#X\	.	6 5	8ee\	.	.	.
8A\L	.	.	8cc#X\L	.	.	.
8c#X\J	.	.	8ee\J	.	8gg\	.
=21	=21	=21	=21	=21	=21	=21
4d\	.	.	4a/	.	8ff\L	.
.	.	.	.	.	8aa\	.
8r	.	.	8r	.	8ff\	.
8D\	.	.	8ff\	.	8dd\J	.
4A\	.	#	8een\	.	8cc#X\L	.
.	.	.	4cc#X\	.	8aa\	.
4G\	.	6nr 4#|	.	.	8een\	.
.	.	.	8een\	.	8cc#X\J	.
=22	=22	=22	=22	=22	=22	=22
4F\	.	6	4a/	.	8dd\L	.
.	.	.	.	.	8aa\	.
4D\	.	.	8r	.	8ff\	.
.	.	.	8ff\	.	8dd\J	.
4A\	.	#	8een\	.	8cc#X\L	.
.	.	.	4cc#X\	.	8aa\	.
4G\	.	6nr 4#|	.	.	8een\	.
.	.	.	8een\	.	8cc#X\J	.
=23	=23	=23	=23	=23	=23	=23
4F\	.	6	4a/	.	8dd\L	.
.	.	.	.	.	8aa\	.
4D\	.	.	8r	.	8ff\	.
.	.	.	8ff\	.	8dd\J	.
8A\L	.	#	4een\	.	8cc#X\L	.
8G\	.	.	.	.	8a\J	.
8F\	.	6	8r	.	[4dd\	.
8D\J	.	.	8ff\	.	.	.
!!LO:LB:g=original
=24	=24	=24	=24	=24	=24	=24
4A\	.	5nr 4	8een\L	.	4dd\]	.
.	.	.	8a\	.	.	.
4AA/	.	#	8aa\	.	4cc#X\	.
.	.	.	8gg\J	.	.	.
4D\	.	.	4ff\	.	8dd\L	.
.	.	.	.	.	8aa\	.
4r	.	.	4r	.	8ff\	.
.	.	.	.	.	8dd\J	.
=25	=25	=25	=25	=25	=25	=25
4.G\	.	7 n	8r	.	4.bn\	.
.	.	.	8ff\	.	.	.
.	.	.	8gg\L	.	.	.
8G\	.	.	8dd\J	.	8b\	.
4C/	.	.	4ee-X\	.	8cc\L	.
.	.	.	.	.	8gg\	.
4r	.	.	4r	.	8ee-y\	.
.	.	.	.	.	8cc\J	.
=26	=26	=26	=26	=26	=26	=26
4.F\	.	7	8r	.	4.a/	.
.	.	.	8ee-y\	.	.	.
.	.	.	8ff\L	.	.	.
8F\	.	.	8cc\J	.	8a/	.
4BB-y/	.	.	4dd\	.	8b-y\L	.
.	.	.	.	.	8ff\	.
8r	.	.	8r	.	8dd\	.
8BB-y/	.	.	8dd\	.	8b-y\J	.
=27	=27	=27	=27	=27	=27	=27
4F\	.	.	8cc\L	.	8a\L	.
.	.	.	8a\J	.	8ff\	.
4E-y\	.	6 4	4cc\	.	8cc\	.
.	.	.	.	.	8a\J	.
4D\	.	6	4f/	.	8b-y\L	.
.	.	.	.	.	8ff\	.
4BB-y/	.	.	8r	.	8dd\	.
.	.	.	8dd\	.	8b-y\J	.
=28	=28	=28	=28	=28	=28	=28
4F\	.	.	8cc\	.	8a\L	.
.	.	.	4a/	.	8ff\	.
4E-y\	.	6 4	.	.	8cc\	.
.	.	.	8cc\	.	8a\J	.
4D\	.	6	8f\L	.	4b-y\	.
.	.	.	8ff\	.	.	.
8r	.	.	8dd\	.	4r	.
8D\	.	.	8ff\J	.	.	.
=29	=29	=29	=29	=29	=29	=29
8B-y\L	.	.	4b-y\	.	8r	.
8D\	.	.	.	.	8ff\	.
8B-y\	.	.	8r	.	8dd\L	.
8D\J	.	.	8bb-y\	.	8ff\J	.
4E-y\	.	.	8gg\L	.	4b-y\	.
.	.	.	8bb-y\	.	.	.
8r	.	.	8ee-y\	.	4r	.
8G\	.	6	8bb-y\J	.	.	.
!!LO:LB:g=original
=30	=30	=30	=30	=30	=30	=30
8c\L	.	n	4cc\	.	8r	.
8En\	.	.	.	.	8gg\	.
8c\	.	.	8r	.	8een\L	.
8En\J	.	.	8ccc\	.	8gg\J	.
4F\	.	.	8aa\L	.	4cc\	.
.	.	.	8ccc\	.	.	.
8r	.	.	8ff\	.	4r	.
8A\	.	6	8ccc\J	.	.	.
=31	=31	=31	=31	=31	=31	=31
8d\L	.	#	4dd\	.	8r	.
8F#X\	.	.	.	.	8aa\	.
8d\	.	.	8r	.	8ff#X\L	.
8F#X\J	.	.	8ddd\	.	8aa\J	.
4G\	.	.	8bb-y\L	.	4dd\	.
.	.	.	8ddd\	.	.	.
8r	.	.	8gg\	.	4r	.
8B-y\	.	6	8ddd\J	.	.	.
=32	=32	=32	=32	=32	=32	=32
8e-y\L	.	.	[2ee-y\	.	8r	.
8G\	.	.	.	.	8bb-y\	.
8e-y\	.	.	.	.	8gg\L	.
8G\J	.	.	.	.	8bb-y\J	.
8A\L	.	6 5	4ee-y\]	.	4ccc\	.
8F\	.	.	.	.	.	.
8B-y\	.	.	4dd\	.	[4bb-y\	.
8D\J	.	.	.	.	.	.
=33	=33	=33	=33	=33	=33	=33
8E-y/L	.	6 5	4.cc\	.	4bb-y\]	.
8C/	.	.	.	.	.	.
8F/	.	.	.	.	4aa\	p
8FF/J	.	.	8ff\	.	.	.
4BB-y/	.	.	4dd\	.	8bb-y\L	.
.	.	.	.	.	8ff\	.
8r	.	.	4r	.	8dd\	.
8D\	p	.	.	.	8ff\J	.
=34	=34	=34	=34	=34	=34	=34
8B-y\L	.	.	8r	.	4b-y\	.
8D\	.	.	8ff\	p	.	.
8B-y\	.	.	8dd\L	.	8r	.
8D\J	.	.	8ff\J	.	8bb-y\	.
4E-y\	.	.	4b-y\	.	8gg\L	.
.	.	.	.	.	8bb-y\	.
8r	.	.	4r	.	8ee-y\	.
8G\	.	6	.	.	8bb-y\J	.
=35	=35	=35	=35	=35	=35	=35
8c\L	.	n	8r	.	4cc\	.
8En\	.	.	8gg\	.	.	.
8c\	.	.	8een\L	.	8r	.
8En\J	.	.	8gg\J	.	8ccc\	.
4F\	.	.	4cc\	.	8aa\L	.
.	.	.	.	.	8ccc\	.
8r	.	.	4r	.	8ff\	.
8A\	.	6	.	.	8ccc\J	.
!!LO:LB:g=original
=36	=36	=36	=36	=36	=36	=36
8d\L	.	#	8r	.	4dd\	.
8F#X\	.	.	8aa\	.	.	.
8d\	.	.	8ff#X\L	.	8r	.
8F#X\J	.	.	8aa\J	.	8ddd\	.
4G\	.	.	4dd\	.	8bb-y\L	.
.	.	.	.	.	8ddd\	.
8r	.	.	4r	.	8gg\	.
8B-y\	.	6	.	.	8ddd\J	.
=37	=37	=37	=37	=37	=37	=37
8e-y\L	.	.	8r	.	[2ee-y\	.
8G\	.	.	8bb-y\	.	.	.
8e-y\	.	.	8gg\L	.	.	.
8G\J	.	.	8bb-y\J	.	.	.
8A\L	.	6 5	4cc\	.	4ee-y\]	.
8F\	.	.	.	.	.	.
8B-y\	.	.	[4b-y\	.	4dd\	.
8D\J	.	.	.	.	.	.
=38	=38	=38	=38	=38	=38	=38
8E-y/L	.	6 5	4b-y\]	.	4.cc\	.
8C/	.	.	.	.	.	.
8F/	.	.	4a/	.	.	.
8FF/J	.	.	.	.	8ff\	.
4BB-y/	.	.	4b-y\	.	4dd\	.
8r	.	.	8r	.	8r	.
8D\	f	.	8f/	f	8b-y\	f
=39	=39	=39	=39	=39	=39	=39
4.BB-y/	.	.	8f/L	.	8d/L	.
.	.	.	8d/	.	8b-y/	.
.	.	.	8f/	.	8d/	.
8D\	.	6	8d/J	.	8b-y/J	.
4.E-y\	.	6 5	8g/L	.	8e-y/L	.
.	.	.	8c/	.	8b-y/	.
.	.	.	8g/	.	8e-y/	.
8E-y\	.	.	8c/J	.	8b-y/J	.
=40	=40	=40	=40	=40	=40	=40
4F\	.	.	8A/L	.	8f/L	.
.	.	.	8f/	.	8a/	.
4FF/	.	.	8A/	.	8f/	.
.	.	.	8f/J	.	8a/J	.
4BB-y/	.	.	4d/	.	4B-y/	.
8r	.	.	8r	.	8r	.
8D\	p	6	8f/	p	8b-y\	p
=41	=41	=41	=41	=41	=41	=41
4.BB-y/	.	.	8f/L	.	8d/L	.
.	.	.	8d/	.	8b-y/	.
.	.	.	8f/	.	8d/	.
8D\	.	6	8d/J	.	8b-y/J	.
4.E-y\	.	6 5	8g/L	.	8e-y/L	.
.	.	.	8c/	.	8b-y/	.
.	.	.	8g/	.	8e-y/	.
8E-y\	.	.	8c/J	.	8b-y/J	.
=42	=42	=42	=42	=42	=42	=42
4F\	.	.	8A/L	.	8f/L	.
.	.	.	8f/	.	8a/	.
4FF/	.	.	8A/	.	8f/	.
.	.	.	8f/J	.	8a/J	.
2BB-y/;	.	.	2d/;	.	2B-y/;	.
=:|!	=:|!	=:|!	=:|!	=:|!	=:|!	=:|!
*-	*-	*-	*-	*-	*-	*-
!!!SMS: RV 78 / Estienne Roger (No. 363), Amsterdam [facs.]
!!!ENC: Fran Bennion   rev. 05/19/21 E Correia
!!!END: 2004/10/30
!!!ONB: Converted from MuseData with musedata2hum on Sat May 11 12:01:57 2024
!!!YEM: (C) 2004, 2019 Center for Computer Assisted Research in the Humanities
!!!system-decoration: [(s1,s2,s3)]
!!!URL-info: https://wiki.ccarh.org/wiki/MuseData:_Antonio_Vivaldi#Op._1:_Suonate_da_camera_a_tr.C3.A8.2C_due_violini_e_violone_o_cembalo Information about Vivaldi Op. 1 on the CCARH wiki
!!!URL-pdf: https://pdf.musedata.org/vivaldi-op01-no10.pdf#page=5 MuseData edition
!!!URL-pdf: https://s9.imslp.org/files/imglnks/usimg/1/18/IMSLP280399-PMLP10351-Vivaldi_Sonatas_Op_1_-_Violino_Primo.pdf#page=16 Violino primo part, Amsterdam: Estienne Roger, n.d.(ca.1723). Plate 363.
!!!URL-pdf: https://s9.imslp.org/files/imglnks/usimg/d/d5/IMSLP280400-PMLP10351-Vivaldi_Sonatas_Op_1_-_Violino_Secondo.pdf#page=14 Violino secondo part, Amsterdam: Estienne Roger, n.d.(ca.1723). Plate 363.
!!!URL-pdf: https://s9.imslp.org/files/imglnks/usimg/8/89/IMSLP280401-PMLP10351-Vivaldi_Sonatas_Op_1_-_Organo_e_Violoncello.pdf#page=14 Organo e Violoncello parts, Amsterdam: Estienne Roger, n.d.(ca.1723). Plate 363.
!!!URL-youtube: https://www.youtube.com/watch?v=P5HHPe_W6Uo&t=1560s L'Arte dell'Arco
!!!title: @{OTL}, mov. @{OMV}
!!!filter-vcross: vcross
!!!EEV: 2024/05/11
!!!source-file: https://bitbucket.org/musedata/vivaldi/src/master/roger/op1/no10/stage2/03/01
!!!source-file: https://bitbucket.org/musedata/vivaldi/src/master/roger/op1/no10/stage2/03/02
!!!source-file: https://bitbucket.org/musedata/vivaldi/src/master/roger/op1/no10/stage2/03/03
!!!source-file: https://bitbucket.org/musedata/vivaldi/src/master/roger/op1/no10/stage2/03/04
